X: 13
F: The Rusty Gulley.abc
T: The Rusty Gulley
Q:1/2=120
M: 3/2
L: 1/8
K: Gmaj
V:1
|: GABc d2 G2 d2 G2|F2 A4 c2 B2 A2|GABc d2 G2 d2 D2|D2 G4 B2 A2 G2:|
g4 f4 e4|f2 d4 f2 e2 d2|c2 dc B2 cB A2 dc|B2 (G2 G2) B2 A2 G2:|
V:2
|: "G"GABc d2 G2 d2 G2|"D"F2 AA A2 c2 B2 A2|"G"GABc d2 G2 d2 D2|"G"D2 (3GGG G2  B2 A2 G2:|
"G"g2ag f2 gf efge|"D"f2 d2 d2 f2 e2 d2|"C"c2>c2 B2 "D"eB AB c2|"G"B2 (G2 G2) B2 A2 G2:|

